!!!OTL: 652. Nuetze den Augenblick!
!!!COM: C. Spazier
!!!ODT: 1794
!!!ARE: Europa, Mitteleuropa, Deutschland
!!!SCT: B0652
!!!TXL: @@DE
!!!YEM: Copyright 1995, estate of Helmut Schaffrath.
**kern	**text
*ICvox	*
*Ivox	*
*clefG2	*
*M6/8	*
*k[f#]	*
*G:	*
=1	=1
!LO:TX:a:t=Heiter.	!
{4dd	Ro-
8dd	-ſen
4b	pflü-
8b	-cke,
=2	=2
8ddL	Ro-
8ccJ	.
8b	-ſen
4a	blühn
8r}	.
=3	=3
{4b	mor-
8b	-gen
4cc#	iſt
8cc#	nicht
=4	=4
4.dd	heut'!
4r	.
8r}	.
=5	=5
{4ccn	Kei-
8cc	-ne
4b	Stunde
8b	.
=6	=6
4cc	laß
8dd	ent-
4ee	-fliehn,
8r}	.
=7	=7
{4dd	flüch-
8b	-tig
8ddL	iſt
8ccJ	.
8a	die
=8	=8
4.g	Ʒeit.
!LO:N:vis=4	!
4.r}	.
==	==
!!!AGN: Moral - Lied, Vergaenglichkeit
!!!GTL: Didaktische Lieder: Betrachtungen, Vergleiche und Moralisationen
!!!ONB: ESAC (Essen Associative Code) Database: BOEHME
!!!AMT: compound duple
!!!AIN: vox
!!!EED: Helmut Schaffrath
!!!EEV: 1.0
!!@@COMMENT:"Gleim: Sieben kleine Gedichte nach Anakreons Manier. Berlin 1764. Ueberſchrift: An
!!Leukon. Damit ſoll C. F. Weiße gemeint ſein ss. Minor, C. F. Weiße. Jnnsbr. 1888. S. 44)."
!!@@END:
!!!Text: C. F. Weiße
!!!URL-scan: https://archive.org/details/BoehmeVtLieder1895/page/n509/mode/2up
!!!ENC: Anna Maria Matuszewska
!!!EEV: 2024/16/07
*-	*-
